svgs/sharp-duotone-light/circle-arrow-down-right.svg

<svg xmlns="http://www.w3.org/2000/svg" viewBox="0 0 512 512"><!--! Font Awesome Pro 7.1.0 by @fontawesome - https://fontawesome.com License - https://fontawesome.com/license (Commercial License) Copyright 2025 Fonticons, Inc. --><path opacity=".4" fill="currentColor" d="M32 256a224 224 0 1 0 448 0 224 224 0 1 0 -448 0zm121.4-80l22.6-22.6 11.3 11.3 132.7 132.7 0-105.4 32 0 0 160-160 0 0-32 105.4 0-132.7-132.7-11.3-11.3z"/><path fill="currentColor" d="M256 480a224 224 0 1 1 0-448 224 224 0 1 1 0 448zM256 0a256 256 0 1 0 0 512 256 256 0 1 0 0-512zM208 320l-16 0 0 32 160 0 0-160-32 0 0 105.4-132.7-132.7-11.3-11.3-22.6 22.6 11.3 11.3 132.7 132.7-89.4 0z"/></svg>

<svg xmlns="http://www.w3.org/2000/svg" viewBox="0 0 512 512"><!--! Font Awesome Pro 6.7.2 by @fontawesome - https://fontawesome.com License - https://fontawesome.com/license (Commercial License) Copyright 2024 Fonticons, Inc. --><defs><style>.fa-secondary{opacity:.4}</style></defs><path class="fa-secondary" d="M32 256a224 224 0 1 0 448 0A224 224 0 1 0 32 256zm121.4-80L176 153.4l11.3 11.3L320 297.4 320 192l0-16 32 0 0 16 0 144 0 16-16 0-136 0-16 0 0-32 16 0 97.4 0L164.7 187.3 153.4 176z"/><path class="fa-primary" d="M256 480a224 224 0 1 1 0-448 224 224 0 1 1 0 448zM256 0a256 256 0 1 0 0 512A256 256 0 1 0 256 0zm80 352l16 0 0-16 0-144 0-16-32 0 0 16 0 105.4L187.3 164.7 176 153.4 153.4 176l11.3 11.3L297.4 320 200 320l-16 0 0 32 16 0 136 0z"/></svg>
